src/lib/packages/icons/src/assets/line/calendar.svg

<svg width="24" height="24" viewBox="0 0 24 24" fill="none" xmlns="http://www.w3.org/2000/svg">
<path d="M18 3.75H16.75V3C16.75 2.586 16.414 2.25 16 2.25C15.586 2.25 15.25 2.586 15.25 3V3.75H8.75V3C8.75 2.586 8.414 2.25 8 2.25C7.586 2.25 7.25 2.586 7.25 3V3.75H6C3.582 3.75 2.25 5.082 2.25 7.5V18C2.25 20.418 3.582 21.75 6 21.75H18C20.418 21.75 21.75 20.418 21.75 18V7.5C21.75 5.082 20.418 3.75 18 3.75ZM6 5.25H7.25V6C7.25 6.414 7.586 6.75 8 6.75C8.414 6.75 8.75 6.414 8.75 6V5.25H15.25V6C15.25 6.414 15.586 6.75 16 6.75C16.414 6.75 16.75 6.414 16.75 6V5.25H18C19.577 5.25 20.25 5.923 20.25 7.5V8.25H3.75V7.5C3.75 5.923 4.423 5.25 6 5.25ZM18 20.25H6C4.423 20.25 3.75 19.577 3.75 18V9.75H20.25V18C20.25 19.577 19.577 20.25 18 20.25ZM9.02002 13C9.02002 13.552 8.57302 14 8.02002 14C7.46802 14 7.01489 13.552 7.01489 13C7.01489 12.448 7.45801 12 8.01001 12H8.02002C8.57202 12 9.02002 12.448 9.02002 13ZM13.02 13C13.02 13.552 12.573 14 12.02 14C11.468 14 11.0149 13.552 11.0149 13C11.0149 12.448 11.458 12 12.01 12H12.02C12.572 12 13.02 12.448 13.02 13ZM17.02 13C17.02 13.552 16.573 14 16.02 14C15.468 14 15.0149 13.552 15.0149 13C15.0149 12.448 15.458 12 16.01 12H16.02C16.572 12 17.02 12.448 17.02 13ZM9.02002 17C9.02002 17.552 8.57302 18 8.02002 18C7.46802 18 7.01489 17.552 7.01489 17C7.01489 16.448 7.45801 16 8.01001 16H8.02002C8.57202 16 9.02002 16.448 9.02002 17ZM13.02 17C13.02 17.552 12.573 18 12.02 18C11.468 18 11.0149 17.552 11.0149 17C11.0149 16.448 11.458 16 12.01 16H12.02C12.572 16 13.02 16.448 13.02 17ZM17.02 17C17.02 17.552 16.573 18 16.02 18C15.468 18 15.0149 17.552 15.0149 17C15.0149 16.448 15.458 16 16.01 16H16.02C16.572 16 17.02 16.448 17.02 17Z" fill="currentColor"/>
</svg>

<svg xmlns="http://www.w3.org/2000/svg" width="24" height="24" fill="none"><path fill="currentColor" d="M18 3.75h-1.25V3a.75.75 0 0 0-1.5 0v.75h-6.5V3a.75.75 0 0 0-1.5 0v.75H6c-2.418 0-3.75 1.332-3.75 3.75V18c0 2.418 1.332 3.75 3.75 3.75h12c2.418 0 3.75-1.332 3.75-3.75V7.5c0-2.418-1.332-3.75-3.75-3.75ZM6 5.25h1.25V6a.75.75 0 0 0 1.5 0v-.75h6.5V6a.75.75 0 0 0 1.5 0v-.75H18c1.577 0 2.25.673 2.25 2.25v.75H3.75V7.5c0-1.577.673-2.25 2.25-2.25Zm12 15H6c-1.577 0-2.25-.673-2.25-2.25V9.75h16.5V18c0 1.577-.673 2.25-2.25 2.25ZM9.02 13a1 1 0 0 1-1 1 1.005 1.005 0 0 1-1.005-1c0-.552.443-1 .995-1h.01a1 1 0 0 1 1 1Zm4 0a1 1 0 0 1-1 1 1.005 1.005 0 0 1-1.005-1c0-.552.443-1 .995-1h.01a1 1 0 0 1 1 1Zm4 0a1 1 0 0 1-1 1 1.005 1.005 0 0 1-1.005-1c0-.552.443-1 .995-1h.01a1 1 0 0 1 1 1Zm-8 4a1 1 0 0 1-1 1 1.005 1.005 0 0 1-1.005-1c0-.552.443-1 .995-1h.01a1 1 0 0 1 1 1Zm4 0a1 1 0 0 1-1 1 1.005 1.005 0 0 1-1.005-1c0-.552.443-1 .995-1h.01a1 1 0 0 1 1 1Zm4 0a1 1 0 0 1-1 1 1.005 1.005 0 0 1-1.005-1c0-.552.443-1 .995-1h.01a1 1 0 0 1 1 1Z"/></svg>
